X:291
%%etbk:tnset id:89,pos:1,rep:3x,ant:
%%etbk:wsite http://www.thesession.org/tunes/display/134
%%etbk:pldat 2016-03-20T14:26,2016-02-04T19:12,2016-02-03T16:17,2016-02-02T17:04,2016-02-01T18:16,2016-01-30T13:30,2016-01-27T16:20,2016-01-26T16:31,2016-01-25T18:26,2016-01-24T15:09,2016-01-20T16:32,2016-01-17T13:19,2016-01-16T15:17,2016-01-02T13:18,2015-12-02T15:06,2015-11-29T13:44,2015-11-28T14:57,2015-11-26T18:35,2015-11-25T15:12,2015-11-04T15:12,2015-11-03T16:37,2015-11-02T17:56,2015-10-31T16:40,2015-10-28T15:20,2015-10-25T14:07,2015-10-22T18:00,2015-10-19T18:04,2015-10-08T18:22,2015-10-07T16:27,2015-10-06T16:46,2015-10-05T18:08,2015-10-03T16:04,2015-09-28T18:23,2015-09-09T16:59,2015-09-07T18:40,2015-09-06T15:10,2015-08-30T15:55,2015-04-15T15:13,2015-02-22T12:41,2015-02-19T19:26,2015-02-16T18:35,2015-02-01T13:52,2015-01-14T16:16,2015-01-13T16:49,2015-01-12T18:57,2015-01-10T15:25,2015-01-08T18:29,2015-01-07T16:09,2015-01-06T18:44,2015-01-05T18:57,2014-12-28T13:35,2014-11-26T15:16,2014-10-30T18:38,2014-10-29T16:52,2014-10-28T17:20,2014-10-27T18:43,2014-10-25T15:34,2014-10-24T18:03,2014-10-23T18:01,2014-10-19T15:24,2014-10-14T18:39,2014-10-10T15:39,2014-10-05T14:54,2014-09-27T10:48,2014-09-24T17:06,2014-09-11T18:02,2014-08-04T18:11,2014-07-20T15:07,2014-07-02T10:38,2014-05-21T18:46,2014-04-18T15:10,2014-04-12T11:21,2014-04-07T18:28,2014-04-06T10:46,2014-04-01T16:14,2014-03-26T16:41,2014-03-23T14:54,2014-01-30T18:01,2014-01-29T16:04,2014-01-28T15:48,2014-01-22T16:15,2014-01-21T17:10,2014-01-20T18:41,2014-01-19T13:35,2014-01-18T14:09,2014-01-17T18:08,2014-01-15T16:15,2014-01-14T18:22,2014-01-12T13:31,2014-01-08T15:58,2014-01-07T15:51,2014-01-02T10:56,2013-12-29T12:26,2013-12-28T14:02,2013-12-26T13:26,2013-12-16T18:45,2013-12-11T18:31,2013-12-10T19:04,2013-10-29T16:36,2013-10-18T15:57,2013-10-16T16:16,2013-10-14T18:24,2013-10-13T14:17,2013-10-09T17:03,2013-10-07T17:54,2013-09-12T17:35,2013-05-23T17:56,2013-05-21T17:15,2013-05-07T18:10
T: Strayaway Child, The
Z: Piano Box Version by Martin Fleischmann
H: Created 2013-02-19 /  Last Modified 2013-02-19
M: 6/8
L: 1/8
R: jig
K: Emin
|: "em"!4!B!1!EE !2!G!1!E!2!E | !1!B,!2!E!1!E !2!G2 A | !4!B2B !4!B!3!A!2!G | "bm"!2!F!1!DF !3!A!5!d!4!c |
| "em"!4!B!1!EE {B}!2!G!1!EE | !4!B!1!EE !2!G2 A | !4!BcB !4!B{c}BA | !2!G!1!EE E2E:|
|: "em"!3!B!5!ee !3!B!4!dd| "bm"!4!d!3!B!1!G {d}!2!AGA | "em"!3!B!5!ee !3!B!4!dd | "bm"!4!d!3!B!1!G !2!A2 A |
|1 "em"!3!B!5!ee !3!B!4!dd | "bm"!4!d!3!B!1!G {d}!2!AG!2!A | "em"!4!BcB B{c}BA | !2!G!1!EE E2E:|
|2 "em"!5!gfe d!1!c!2!B| !1!A!2!A!1!A !4!B!2!G!1!E | "bm"!3!A!2!G!1!E !2!D!1!B,D| "em"!3!E3 !1!E3||
|: "em"!1!E!3!AG !1!E !3!(3E!2!E!1!E | !2!G{B}GG !4!BAG | !3!A!2!G!1!E "bm"!2!D!1!B,D | "em"!3!E!4!GF !2!!1!E3 |
"em"!1!E!3!AG !1!E !3!(3E!2!E!1!E | !2!G{B}GG !4!BAG | "bm"!3!A!2!G!1!E !2!D!1!B,!2!D | "em"!3!E3 !1!E3:|
|: "em"!4!efe !3!ded | !2!c!1!AA !4!B!2!G!1!E | !2!GA!4!B !5!d!4!BB | !3!A!2!G!1!E "bm"!1!D2!5!c |
 "em"!4!BAG !1!E !3!(3E!2!E!1!E | !2!GAB !5!cBA | "bm"!4!BAG !1!E!3!AG | "em"!1!E !3!(3E!2!E!1!E !1!E3:|
|: "em"!3!B!5!e!3!e !3!efg | "bm"!4!f!2!df !3!e!2!d!1!A | "em"!1!B!3!e!3!e !3!efg | "bm"!4!f!2!df !3!e2 f | 
"em"!5!gfe d!1!c!2!B | !1!A!2!A!1!A !4!B!2!G!1!E | "bm"!3!A!2!G!1!E !2!D!1!B,!2!D | "em"!3!E3 !1!E3:|
|: "em"!4!e!3!d!2!B edB | !1!A!2!A!1!A !4!B!2!G!1!E | !4!e!3!d!2!B edB | "bm"!1!AB!3!c "em"!1!B!2!B!1!B | 
"em"!3!e!2!d!1!B !5!gfe | d!1!c!2!B !1!A!2!A!1!A | "bm"!4!BAG !1!E!3!A!2!G | "em"!1!E !3!(3E!2!E!1!E !1!E3:|


